X: 425
T: Buai yinzi buai qian
%%abc-version 2.0
%%abcx-abcm2ps-target-version 5.9.1 (29 Sep 2008)
%%abc-creator hum2abc beta
%%abcx-conversion-date 2013/10/02 07:52:30
%%abc-edited-by Helmut Schaffrath
%%humdrum-veritas 4078957556
%%humdrum-veritas-data 2139462426
%%continueall 1
%%barnumbers 0
L: 1/8
M: 2/4
K: Bb
f b/ g/ f f [I:setbarnb 1]| 
b c' f' c' | 
f g f f/ d/ | 
c4 | 
f b/ g/ f f | 
b c' f' c' | 
f' g f f/ d/ | 
f4 |]  



